docs/img/logo.svg

<svg width="227" height="90" viewBox="0 0 227 90" fill="none" xmlns="http://www.w3.org/2000/svg">
<rect width="227" height="90" transform="matrix(1 0 0 -1 0 90)" fill="#FF6600"/>
<path fill-rule="evenodd" clip-rule="evenodd" d="M187.898 37.863V35.6587C187.898 35.643 187.899 35.6124 187.903 35.5657C187.907 35.5191 187.917 35.4885 187.932 35.4727C187.948 35.4653 187.973 35.4595 188.008 35.4553C188.044 35.4518 188.073 35.4495 188.096 35.4495H189.042C189.082 35.4495 189.132 35.4553 189.194 35.4669C189.257 35.4788 189.308 35.512 189.346 35.5657C189.393 35.6278 189.417 35.6973 189.417 35.7746V36.1807C189.417 36.258 189.385 36.3201 189.323 36.3664C189.299 36.3816 189.245 36.3931 189.159 36.4009C189.073 36.4086 189.019 36.4125 188.996 36.4125H188.587C188.54 36.4125 188.487 36.4202 188.429 36.436C188.371 36.4517 188.341 36.5132 188.341 36.6213C188.341 36.7063 188.355 36.7665 188.382 36.8012C188.409 36.8363 188.443 36.8727 188.481 36.9113L189.428 37.8626H190.059L188.996 36.7954H189.288C189.343 36.7954 189.404 36.7877 189.475 36.7719C189.545 36.7568 189.613 36.7217 189.679 36.6677C189.745 36.6139 189.8 36.5303 189.843 36.4186C189.885 36.3063 189.907 36.1498 189.907 35.9487C189.907 35.8248 189.892 35.6835 189.86 35.5248C189.829 35.3665 189.755 35.2445 189.638 35.1592C189.561 35.0975 189.475 35.0627 189.381 35.0546C189.288 35.0472 189.191 35.0431 189.089 35.0431H187.932C187.816 35.0431 187.726 35.053 187.664 35.0723C187.601 35.0917 187.55 35.1203 187.512 35.1592C187.473 35.1982 187.449 35.2426 187.442 35.2928C187.434 35.343 187.43 35.3916 187.43 35.438V37.8626H187.898V37.863ZM188.54 38.6054C188.4 38.6054 188.256 38.598 188.108 38.5823C187.96 38.5665 187.814 38.5359 187.67 38.4893C187.526 38.4429 187.389 38.3734 187.261 38.2804C187.132 38.1877 187.018 38.0599 186.916 37.8977C186.784 37.6889 186.706 37.4549 186.683 37.1955C186.659 36.9364 186.648 36.687 186.648 36.4472C186.648 36.3314 186.651 36.2017 186.659 36.0588C186.667 35.9159 186.687 35.7727 186.718 35.6291C186.749 35.4859 186.797 35.3449 186.864 35.2056C186.93 35.0666 187.021 34.9388 187.138 34.8229C187.255 34.7148 187.384 34.6314 187.524 34.5732C187.664 34.5153 187.806 34.4731 187.95 34.4457C188.094 34.4187 188.234 34.4029 188.371 34.3994C188.507 34.3959 188.63 34.3936 188.739 34.3936C188.879 34.3936 189.022 34.3975 189.166 34.4052C189.31 34.4129 189.452 34.4361 189.592 34.4747C189.732 34.5133 189.865 34.5716 189.989 34.6488C190.114 34.7261 190.231 34.8342 190.34 34.9735C190.418 35.0817 190.48 35.2037 190.527 35.3388C190.574 35.474 190.609 35.6114 190.632 35.7508C190.655 35.8898 190.671 36.0269 190.679 36.1627C190.686 36.2979 190.691 36.4195 190.691 36.528C190.691 36.6596 190.685 36.8064 190.673 36.9689C190.661 37.1314 190.634 37.2898 190.591 37.4446C190.548 37.5991 190.488 37.7484 190.41 37.8916C190.332 38.0348 190.231 38.1565 190.106 38.2572C190.005 38.3344 189.886 38.3962 189.75 38.4426C189.614 38.4889 189.471 38.524 189.324 38.5469C189.176 38.5704 189.033 38.5855 188.897 38.5935C188.76 38.6016 188.642 38.6054 188.54 38.6054ZM188.552 39C188.396 39 188.234 38.9942 188.067 38.9829C187.9 38.971 187.734 38.9421 187.571 38.8957C187.407 38.8494 187.249 38.7815 187.097 38.6926C186.945 38.6038 186.803 38.4818 186.671 38.327C186.554 38.1877 186.462 38.039 186.396 37.8807C186.33 37.722 186.281 37.5611 186.25 37.3989C186.219 37.2364 186.199 37.0761 186.191 36.9174C186.184 36.7588 186.18 36.6101 186.18 36.471C186.18 36.3394 186.184 36.1923 186.191 36.0298C186.199 35.8676 186.221 35.7009 186.256 35.5313C186.291 35.361 186.345 35.1924 186.42 35.0266C186.493 34.8599 186.601 34.7077 186.741 34.5684C186.881 34.429 187.031 34.3209 187.19 34.2436C187.35 34.1664 187.514 34.1101 187.681 34.0756C187.849 34.0406 188.018 34.0193 188.19 34.0116C188.361 34.0042 188.529 34 188.692 34C188.832 34 188.978 34.0023 189.13 34.0058C189.282 34.01 189.434 34.0251 189.586 34.0521C189.738 34.0792 189.888 34.122 190.035 34.1799C190.184 34.2378 190.324 34.3244 190.456 34.4409C190.612 34.5725 190.737 34.717 190.83 34.876C190.924 35.0347 190.994 35.2027 191.041 35.3807C191.087 35.5583 191.119 35.7405 191.134 35.9258C191.15 36.1115 191.158 36.2934 191.158 36.4714C191.158 36.6413 191.15 36.8177 191.134 36.9992C191.119 37.1807 191.089 37.3625 191.047 37.5443C191.004 37.7259 190.939 37.8984 190.854 38.0606C190.768 38.2231 190.655 38.366 190.515 38.4899C190.375 38.6138 190.215 38.7104 190.036 38.7802C189.857 38.8497 189.675 38.8999 189.493 38.9308C189.309 38.9617 189.134 38.981 188.967 38.9887C188.8 38.9961 188.661 39 188.552 39Z" fill="white"/>
<path fill-rule="evenodd" clip-rule="evenodd" d="M65.7105 55.9997V50.5308H53.7771C52.7297 50.5308 52.2318 50.2508 52.2318 49.1796V34H44.8026V53.1709C44.8026 54.0822 45.2961 54.8996 45.822 55.3081C46.4465 55.8112 47.4331 56 48.3205 56H65.7105V55.9997Z" fill="white"/>
<path fill-rule="evenodd" clip-rule="evenodd" d="M88.0467 36.2118C85.6224 34.0921 81.5822 34 78.1555 34C74.7291 34 70.6886 34.0921 68.2639 36.2118C65.8071 38.3619 65.7104 42.1098 65.7104 44.9974C65.7104 47.8236 65.8074 51.6019 68.2639 53.7832C70.6558 55.9079 74.7932 56 78.1555 56C81.5169 56 85.6549 55.9079 88.0467 53.7832C90.5036 51.6022 90.6008 47.8236 90.6008 44.9974C90.6008 42.1096 90.5036 38.3616 88.0467 36.2118ZM83.1011 44.9971C83.1011 46.7171 83.1011 47.9155 82.2607 49.0826C81.2583 50.496 80.0621 50.6491 78.1552 50.6491C76.3127 50.6491 75.0195 50.496 74.05 49.0826C73.3065 48.0076 73.2095 46.6868 73.2095 44.9971C73.2095 43.2155 73.2414 42.0475 74.05 40.9112C75.0195 39.4981 76.2802 39.3448 78.1552 39.3448C80.0621 39.3448 81.258 39.4984 82.2607 40.9112C83.1336 42.1096 83.1011 43.1234 83.1011 44.9971Z" fill="white"/>
<path fill-rule="evenodd" clip-rule="evenodd" d="M92.5925 56H99.7902V41.1969C99.7902 40.6622 99.7585 40.2227 100.204 39.8135C100.522 39.4995 100.905 39.4682 101.319 39.4682H105.3C105.968 39.4682 106.765 39.4362 107.306 40.0023C108.035 40.7224 108 42.8887 107.37 43.6793C106.86 44.2767 106 44.3393 105.364 44.3393H104.217C102.37 44.3393 101.001 45.3455 101.001 46.8223V47.2941C101.001 48.3626 101.797 49.3053 102.529 50.2795L106.828 56H115.491L109.122 49.3052H110.077C111.797 49.3052 113.389 48.5197 114.217 46.5712C114.981 44.7798 115.045 42.1709 115.045 41.1653C115.045 39.4998 114.854 37.5512 113.899 36.1367C112.434 34 109.982 34 108.58 34H96.4458C95.5857 34 94.2806 34.1572 93.4522 35.0685C92.6562 35.9486 92.5922 37.2059 92.5922 38.2115V56H92.5925Z" fill="white"/>
<path fill-rule="evenodd" clip-rule="evenodd" d="M137.395 56V50.6569H126.428C125.979 50.6569 125.402 50.6885 125.05 50.3742C124.89 50.2486 124.729 49.9969 124.729 49.557V47.1683H136.978V42.3909H124.729V40.7257C124.729 40.4427 124.729 39.9402 125.081 39.6569C125.338 39.4368 125.787 39.3425 126.204 39.3425H137.299V34H121.17C120.368 34 119.278 34.1259 118.444 34.8803C117.611 35.6345 117.482 36.5456 117.482 37.394V52.4802C117.482 53.5171 117.482 54.3971 118.509 55.2455C119.375 55.9374 120.304 56 121.234 56H137.395Z" fill="white"/>
<path fill-rule="evenodd" clip-rule="evenodd" d="M164.276 34.2457H158.608V47.0554C158.608 47.209 158.608 47.5774 158.25 47.5774C157.989 47.5774 157.793 47.2705 157.63 47.0554L149.323 35.9967C147.922 34.1227 145.739 34 144.501 34C141.862 34 139.386 35.0138 139.386 37.8089V55.7493H145.055V43.0008C145.055 42.3864 145.413 42.3864 145.511 42.3864C145.739 42.3864 145.967 42.6933 146.13 42.9087L154.372 53.8753C155.806 55.7852 157.598 56 159.324 56C164.113 56 164.276 52.9236 164.276 52.1555V34.2457H164.276Z" fill="white"/>
<path fill-rule="evenodd" clip-rule="evenodd" d="M182.851 36.6409C181.793 34.2173 179.869 34 177.72 34C174.256 34 173.294 35.0255 172.588 36.6409L164.276 56H171.915L173.678 51.5254H181.761L183.525 56H191.158L182.851 36.6409ZM175.41 46.5534L177.431 41.0533C177.684 40.4416 177.755 40.4362 178.008 41.0533L180.029 46.5534H175.41Z" fill="white"/>
</svg>

<svg width="227" height="90" fill="none" xmlns="http://www.w3.org/2000/svg"><path fill="#F60" d="M0 90h227V0H0z"/><path fill-rule="evenodd" clip-rule="evenodd" d="M187.898 37.863v-2.204c0-.016.001-.047.005-.093.004-.047.014-.078.029-.093a.269.269 0 0 1 .076-.018.971.971 0 0 1 .088-.005h.946c.04 0 .09.005.152.017a.234.234 0 0 1 .152.099.338.338 0 0 1 .071.209v.406c0 .077-.032.14-.094.185a.44.44 0 0 1-.164.035 2.54 2.54 0 0 1-.163.011h-.409c-.047 0-.1.008-.158.024-.058.016-.088.077-.088.185 0 .085.014.145.041.18.027.035.061.072.099.11l.947.952h.631l-1.063-1.068h.292a.864.864 0 0 0 .187-.023.486.486 0 0 0 .204-.104.586.586 0 0 0 .164-.25c.042-.112.064-.268.064-.47 0-.123-.015-.264-.047-.423a.568.568 0 0 0-.222-.366.468.468 0 0 0-.257-.104 3.673 3.673 0 0 0-.292-.012h-1.157a.953.953 0 0 0-.268.03.353.353 0 0 0-.152.086.232.232 0 0 0-.07.134.925.925 0 0 0-.012.145v2.425h.468zm.642.742c-.14 0-.284-.007-.432-.023a2.164 2.164 0 0 1-.438-.093 1.338 1.338 0 0 1-.754-.592 1.55 1.55 0 0 1-.233-.701 8.109 8.109 0 0 1-.024-1.137c.008-.143.028-.286.059-.43a1.9 1.9 0 0 1 .146-.423c.066-.14.157-.267.274-.383.117-.108.246-.192.386-.25.14-.058.282-.1.426-.127a2.65 2.65 0 0 1 .421-.047 8.822 8.822 0 0 1 .795.006 2 2 0 0 1 .426.07 1.36 1.36 0 0 1 .748.499c.078.108.14.23.187.365.047.135.082.272.105.412.023.139.039.276.047.412a6.034 6.034 0 0 1-.006.806 2.47 2.47 0 0 1-.082.476 2.12 2.12 0 0 1-.181.447 1.202 1.202 0 0 1-.304.365c-.101.077-.22.14-.356.186a2.534 2.534 0 0 1-.426.104 4.36 4.36 0 0 1-.427.047 6.105 6.105 0 0 1-.357.011zm.012.395a7.4 7.4 0 0 1-.485-.017 2.445 2.445 0 0 1-.496-.087 2.028 2.028 0 0 1-.474-.203 1.674 1.674 0 0 1-.426-.366 1.725 1.725 0 0 1-.275-.446 2.454 2.454 0 0 1-.146-.482 3.51 3.51 0 0 1-.059-.482 10.188 10.188 0 0 1-.011-.446c0-.132.004-.279.011-.441.008-.162.03-.33.065-.499.035-.17.089-.339.164-.504a1.49 1.49 0 0 1 .321-.459c.14-.139.29-.247.449-.324.16-.078.324-.134.491-.168.168-.035.337-.057.509-.064a11.651 11.651 0 0 1 .94-.006c.152.004.304.02.456.046.152.027.302.07.449.128.149.058.289.144.421.26.156.133.281.277.374.436.094.159.164.327.211.505a3.2 3.2 0 0 1 .093.545 6.021 6.021 0 0 1 0 1.073 3.821 3.821 0 0 1-.087.545 2.204 2.204 0 0 1-.193.517 1.517 1.517 0 0 1-.339.429c-.14.124-.3.22-.479.29-.179.07-.361.12-.543.15a4.254 4.254 0 0 1-.526.059 9.766 9.766 0 0 1-.415.011zM65.71 56v-5.47H53.777c-1.047 0-1.545-.28-1.545-1.35V34h-7.43v19.17c0 .912.494 1.73 1.02 2.138.624.503 1.611.692 2.498.692h17.39zm22.337-19.788C85.622 34.092 81.582 34 78.156 34c-3.427 0-7.467.092-9.892 2.212-2.457 2.15-2.554 5.898-2.554 8.785 0 2.827.097 6.605 2.554 8.786C70.656 55.908 74.794 56 78.156 56c3.36 0 7.499-.092 9.89-2.217 2.458-2.18 2.555-5.96 2.555-8.786 0-2.887-.097-6.635-2.554-8.785zM83.1 44.997c0 1.72 0 2.919-.84 4.086-1.003 1.413-2.199 1.566-4.106 1.566-1.842 0-3.136-.153-4.105-1.566-.743-1.075-.84-2.396-.84-4.086 0-1.782.031-2.95.84-4.086.97-1.413 2.23-1.566 4.105-1.566 1.907 0 3.103.153 4.106 1.566.873 1.199.84 2.212.84 4.086zM92.593 56h7.197V41.197c0-.535-.032-.974.414-1.384.318-.314.701-.345 1.115-.345h3.981c.668 0 1.465-.032 2.006.534.729.72.694 2.887.064 3.677-.51.598-1.37.66-2.006.66h-1.147c-1.847 0-3.216 1.007-3.216 2.483v.472c0 1.069.796 2.011 1.528 2.986l4.299 5.72h8.663l-6.369-6.695h.955c1.72 0 3.312-.785 4.14-2.734.764-1.791.828-4.4.828-5.406 0-1.665-.191-3.614-1.146-5.028C112.434 34 109.982 34 108.58 34H96.446c-.86 0-2.165.157-2.994 1.069-.796.88-.86 2.137-.86 3.142V56zm44.802 0v-5.343h-10.967c-.449 0-1.026.032-1.378-.283-.16-.125-.321-.377-.321-.817v-2.389h12.249v-4.777h-12.249v-1.665c0-.283 0-.786.352-1.07.257-.22.706-.313 1.123-.313h11.095V34H121.17c-.802 0-1.892.126-2.726.88-.833.755-.962 1.666-.962 2.514V52.48c0 1.037 0 1.917 1.027 2.766.866.691 1.795.754 2.725.754h16.161zm26.881-21.754h-5.668v12.81c0 .153 0 .521-.358.521-.261 0-.457-.306-.62-.522l-8.307-11.058c-1.401-1.874-3.584-1.997-4.822-1.997-2.639 0-5.115 1.014-5.115 3.809v17.94h5.669V43.001c0-.615.358-.615.456-.615.228 0 .456.307.619.523l8.242 10.966c1.434 1.91 3.226 2.125 4.952 2.125 4.789 0 4.952-3.076 4.952-3.844v-17.91zm18.575 2.394c-1.058-2.423-2.982-2.64-5.131-2.64-3.464 0-4.426 1.026-5.132 2.64L164.276 56h7.639l1.763-4.475h8.083L183.525 56h7.633l-8.307-19.36zm-7.441 9.913l2.021-5.5c.253-.611.324-.617.577 0l2.021 5.5h-4.619z" fill="#fff"/></svg>
